X:1
T:Title
%%score { ( 1 3 4 ) | ( 2 5 ) }
L:1/8
Q:1/4=118
M:3/4
K:G
V:1 treble nm="Grand Piano"
V:3 treble 
V:4 treble 
V:2 bass 
V:5 bass 
V:1
 [Bd]2 [D_B^c]2 [D=Bd]2 | [GB]6 | [Bd]2 [D_B^c]2 [D=Bd]2 | [GB]6 | [Ac]2 [^GB]2 [Ac]2 | %5
w: George~L.~Brown * *|||||
 z2 z B [Ac]2 | [ce]2 [DBd]2 [D_B^c]2 | [Bd]6 | [Bd]2 [D_B^c]2 [D=Bd]2 | [GB]6 | %10
w: |||||
 [DGB]2 [FA]2 [=FG]2 | [Ec]6 | [EG]2 [DF]2 [CE]2 | [B,D]4 [DB]2 | [CA]2 [B,G]2 [A,F]2 | [B,G]6 | %16
w: ||||||
 [FA]2 [FA]2 [FA]2 | [FA]4 c2 | B2 A2 G2 | [FA]6 | [FA]2 [FA]2 [FA]2 | F4- [Fd]2 | %22
w: ||||||
 ^c2 [GB]2 [Gc]2 | [Fd]6 | d2 ^c2 d2 | B6 | B2 A2 G2 | [Ec]6 | [EG]2 [G,DF]2 [G,CE]2 | %29
w: |||||||
 G,4- [G,B]2 | A2 G2 F2 | [B,DG]6 |] %32
w: |||
V:2
 G,2 B,2 B,2 | G,2 B,2 B,2 | G,2 B,2 B,2 | G,2 B,2 B,2 | D,2 [F,A,D]2 [F,A,D]2 | D,2 z G [F,A,D]2 | %6
 G,2 B,2 B,2 | G,2 B,2 B,2 | G,2 B,2 B,2 | G,2 B,2 B,2 | z2 C2 B,2 | C,2 G,2 G,2 | C,2 G,2 G,2 | %13
 G,,2 G,2 G,2 | D,2 [D,,D,]2 [D,,D,]2 | [G,,D,]6 | [D,D]2 [D,D]2 [D,D]2 | z2 z2[K:treble] A2 | %18
 [G,DG]2 [G,CG]2[K:bass] [G,B,]2 | [D,D]6 | [D,D]2 [D,D]2 [D,D]2 | z2 z2[K:treble] A,2 | %22
 [A,G]2[K:bass] [A,,A,]2 [A,,A,]2 | A,4 z2 | [G,B,G]2 [G,_B,G]2 [G,=B,G]2 | [G,DG]6 | %26
 [G,DG]2 [G,CF]2 [G,B,=F]2 | [C,C]6 | [C,C]2 C,2 C,2 | z2 z2 D2 | [D,CD]2 [D,B,D]2 [D,A,D]2 | %31
 [G,,G,]6 |] %32
V:3
 x6 | z2 D2 D2 | x6 | z2 D2 D2 | x6 | [FA]4 z2 | x6 | z2 D2 D2 | x6 | z2 D2 D2 | x6 | z2 C2 C2 | %12
 x6 | x6 | x6 | x6 | x6 | x6 | x6 | x6 | x6 | [DA]4 z2 | x6 | z2 z2 C2 | x6 | x6 | x6 | x6 | x6 | %29
 [B,D]4 z2 | x6 | x6 |] %32
V:4
 x6 | x6 | x6 | x6 | x6 | z2 [A,D]2 z2 | x6 | x6 | x6 | x6 | x6 | x6 | x6 | x6 | x6 | x6 | x6 | %17
 x6 | x6 | x6 | x6 | x6 | x6 | x6 | x6 | x6 | x6 | x6 | x6 | x6 | x6 | x6 |] %32
V:5
 x6 | x6 | x6 | x6 | x6 | z2 F,2 z2 | x6 | x6 | x6 | x6 | G,6 | x6 | x6 | x6 | x6 | x6 | x6 | %17
 [D,D]6[K:treble] | x4[K:bass] x2 | x6 | x6 | D,6[K:treble] | x2[K:bass] x4 | D,6 | x6 | x6 | x6 | %27
 x6 | x6 | G,,6 | x6 | x6 |] %32

